assets/images/ico_feature2.svg

<svg width="59" height="54" viewBox="0 0 59 54" fill="none" xmlns="http://www.w3.org/2000/svg">
<path d="M53.0374 6.22974H5.58298C4.15279 6.22974 2.78117 6.80079 1.76987 7.81728C0.758572 8.83376 0.19043 10.2124 0.19043 11.6499V48.5073C0.19043 49.9449 0.758572 51.3235 1.76987 52.34C2.78117 53.3565 4.15279 53.9275 5.58298 53.9275H53.0374C54.4676 53.9275 55.8392 53.3565 56.8505 52.34C57.8618 51.3235 58.43 49.9449 58.43 48.5073V11.6499C58.43 10.2124 57.8618 8.83376 56.8505 7.81728C55.8392 6.80079 54.4676 6.22974 53.0374 6.22974ZM53.0374 51.7594H5.58298C4.72486 51.7594 3.90189 51.4168 3.29511 50.8069C2.68834 50.197 2.34745 49.3698 2.34745 48.5073V11.6499C2.34745 10.7874 2.68834 9.96023 3.29511 9.35034C3.90189 8.74045 4.72486 8.39782 5.58298 8.39782H53.0374C53.8955 8.39782 54.7185 8.74045 55.3253 9.35034C55.9321 9.96023 56.273 10.7874 56.273 11.6499V21.4063H34.7028C32.4144 21.4063 30.2199 22.32 28.6018 23.9464C26.9837 25.5727 26.0747 27.7786 26.0747 30.0786C26.0747 32.3787 26.9837 34.5845 28.6018 36.2109C30.2199 37.8373 32.4144 38.751 34.7028 38.751H56.273V48.5073C56.273 49.3698 55.9321 50.197 55.3253 50.8069C54.7185 51.4168 53.8955 51.7594 53.0374 51.7594ZM56.273 36.5829H34.7028C32.9865 36.5829 31.3406 35.8976 30.127 34.6778C28.9135 33.458 28.2317 31.8037 28.2317 30.0786C28.2317 28.3536 28.9135 26.6992 30.127 25.4794C31.3406 24.2597 32.9865 23.5744 34.7028 23.5744H56.273V36.5829Z" fill="white"/>
<path d="M6.66152 2.97759H51.9589C52.245 2.97759 52.5193 2.86338 52.7216 2.66008C52.9238 2.45679 53.0374 2.18106 53.0374 1.89355C53.0374 1.60604 52.9238 1.33031 52.7216 1.12702C52.5193 0.923721 52.245 0.809509 51.9589 0.809509H6.66152C6.37548 0.809509 6.10116 0.923721 5.8989 1.12702C5.69664 1.33031 5.58301 1.60604 5.58301 1.89355C5.58301 2.18106 5.69664 2.45679 5.8989 2.66008C6.10116 2.86338 6.37548 2.97759 6.66152 2.97759Z" fill="white"/>
<circle cx="35.0292" cy="29.6191" r="1.74603" fill="white"/>
</svg>

<svg width="59" height="54" fill="none" xmlns="http://www.w3.org/2000/svg"><path d="M53.037 6.23H5.583c-1.43 0-2.802.57-3.813 1.587A5.434 5.434 0 00.19 11.65v36.857c0 1.438.569 2.817 1.58 3.833a5.379 5.379 0 003.813 1.587h47.454c1.43 0 2.802-.57 3.813-1.587a5.434 5.434 0 001.58-3.833V11.65a5.434 5.434 0 00-1.58-3.833 5.379 5.379 0 00-3.813-1.587zm0 45.53H5.583a3.227 3.227 0 01-2.288-.953 3.26 3.26 0 01-.948-2.3V11.65c0-.863.341-1.69.948-2.3a3.227 3.227 0 012.288-.952h47.454c.858 0 1.681.342 2.288.952a3.26 3.26 0 01.948 2.3v9.756h-21.57a8.606 8.606 0 00-6.101 2.54 8.695 8.695 0 00-2.527 6.133c0 2.3.909 4.505 2.527 6.132a8.606 8.606 0 006.1 2.54h21.571v9.756c0 .863-.34 1.69-.948 2.3-.607.61-1.43.952-2.288.952zm3.236-15.177h-21.57a6.454 6.454 0 01-4.576-1.905 6.521 6.521 0 01-1.895-4.6 6.52 6.52 0 011.895-4.599 6.455 6.455 0 014.576-1.905h21.57v13.009zM6.662 2.978h45.297c.286 0 .56-.115.763-.318a1.087 1.087 0 00-.763-1.85H6.662c-.287 0-.56.114-.763.317a1.087 1.087 0 00.763 1.85z" fill="#fff"/><circle cx="35.029" cy="29.619" r="1.746" fill="#fff"/></svg>
